static/images/click2.svg

<svg height="86" viewBox="0 0 86 86" width="86" xmlns="http://www.w3.org/2000/svg"><g fill="none" fill-rule="evenodd"><circle cx="43" cy="43" fill="#02afde" fill-rule="nonzero" r="43"/><path d="m25.7296276 29.0178022c.224718 0 .4447724.0899064.6038541.2467317l8.8275669 8.7032078 2.7762437-2.7387383-8.8273942-8.7020159c-.1889635-.1869644-.2775726-.4440829-.2426817-.7052882.0343727-.2583105.1910363-.4897172.4193816-.6194684l5.8506143-3.3318138-22.5006488-8.8481137 8.9740395 22.1843937 3.3788887-5.7676291c.1317908-.225447.3666998-.3800587.6285541-.4142844.0345455-.0040867.0727182-.0069814.1115818-.0069814m9.4312483 10.9821978c-.2286907 0-.4432179-.0876928-.6043723-.2467317l-8.6443034-8.5222031-3.7025794 6.3206893c-.1521726.2595025-.4350997.420755-.7384086.420755-.0207272 0-.0418-.0008514-.0625272-.0023839-.3248998-.0231577-.6123178-.2300445-.7323632-.5273485l-10.3629386-25.6171818c-.126609-.3129695-.0523363-.6693597.189309-.9075774.1613271-.1586984.376027-.2462209.6040268-.2462209.1086454 0 .2148726.0200927.3160907.0601079l25.9831738 10.2171423c.3020998.1186832.5117906.4015136.5352815.7212942.0236636.3243781-.1392181.6271309-.4252543.7899159l-6.4105957 3.6514241 8.6441306 8.5220329c.1616726.1592092.2504544.3705232.2504544.5954593 0 .2247659-.0887818.4360799-.2502817.5949485l-3.9849882 3.9291462c-.1614999.1590389-.3758543.2467317-.6038542.2467317zm-27.57568363-31.67974558c-.22799985 0-.44252698-.08769275-.60385414-.24673165l-3.04949799-3.0064141c-.16184535-.15920917-.25079984-.37052317-.25079984-.59545934s.08912722-.43659072.25062711-.59597017c.16132717-.15869834.37602702-.24622082.6041996-.24622082s.44287244.08752248.60437233.24656138l3.04880708 3.00624382c.16149989.15937945.25045438.37086372.25045438.59579989s-.08878176.43625017-.25028165.59528907c-.1614999.15920917-.37602703.24690192-.60402688.24690192zm-6.73105647 5.39034588c-.47102696 0-.8541358-.3780154-.8541358-.8427018 0-.4640054.38310884-.8413396.8541358-.8413396h4.31282443c.47102696 0 .8541358.3773342.8541358.8413396 0 .4641756-.38328156.8423612-.85448125.8427018zm3.04989526 8.13879c-.22799985 0-.44252698-.0876927-.60402687-.2469019-.16149989-.1590389-.25045438-.3703529-.25045438-.5951188 0-.2249362.08895449-.4362502.25028165-.5951188l3.05001617-3.0067546c.1614999-.1593795.37568157-.246902.60385415-.246902.22799985 0 .44235425.0876928.60350869.2467317.16184535.1592092.25079984.3706934.25079984.5954593s-.08895449.4362502-.25028165.5951188l-3.04984345 3.0067547c-.16149989.1590389-.37602702.2467316-.60385415.2467316zm9.14828674-15.91301656c-.471027 0-.8541358-.37767481-.8541358-.84202072v-4.25233231c0-.4643459.3831088-.84202071.8541358-.84202071.4711997 0 .8543085.37767481.8543085.84202071v4.25165121c0 .46468645-.3831088.84270182-.8543085.84270182zm5.2055129 1.76071724c-.2283453 0-.4426997-.08752247-.6040269-.24622081-.3326725-.32846471-.3326725-.86296481.0001727-1.19125924l3.0496708-3.0064141c.1613271-.15886862.3756815-.24639109.6038541-.24639109.2283453 0 .4426997.08752247.6038542.24639109.1614999.15920918.2506271.371034.2506271.59597017 0 .2247659-.0889545.43607989-.2504544.59494851l-3.0491526 3.00692493c-.1611544.15852807-.3758542.24605054-.604545.24605054z" fill="#fff" transform="translate(23 23)"/></g></svg>

<?xml version="1.0" encoding="UTF-8"?>
<svg width="86px" height="86px" viewBox="0 0 86 86" version="1.1" xmlns="http://www.w3.org/2000/svg" xmlns:xlink="http://www.w3.org/1999/xlink">
    <!-- Generator: sketchtool 46.2 (44496) - http://www.bohemiancoding.com/sketch -->
    <title>8E85D40F-B3BF-472F-94AB-C0BF95A791D7</title>
    <desc>Created with sketchtool.</desc>
    <defs></defs>
    <g id="Page-1" stroke="none" stroke-width="1" fill="none" fill-rule="evenodd">
        <g id="icons" transform="translate(-714.000000, -1503.000000)">
            <g transform="translate(63.000000, 1503.000000)" id="3">
                <g transform="translate(571.000000, 0.000000)">
                    <g id="ic/click" transform="translate(80.000000, 0.000000)">
                        <circle id="Oval" fill="#02AFDE" fill-rule="nonzero" cx="43" cy="43" r="43"></circle>
                        <g id="Page-1" transform="translate(23.000000, 23.000000)" fill="#FFFFFF">
                            <path d="M25.7296276,29.0178022 C25.9543456,29.0178022 26.1744,29.1077086 26.3334817,29.2645339 L35.1610486,37.9677417 L37.9372923,35.2290034 L29.1098981,26.5269875 C28.9209346,26.3400231 28.8323255,26.0829046 28.8672164,25.8216993 C28.9015891,25.5633888 29.0582527,25.3319821 29.286598,25.2022309 L35.1372123,21.8704171 L12.6365635,13.0223034 L21.610603,35.2066971 L24.9894917,29.439068 C25.1212825,29.213621 25.3561915,29.0590093 25.6180458,29.0247836 C25.6525913,29.0206969 25.690764,29.0178022 25.7296276,29.0178022 M35.1608759,40 C34.9321852,40 34.717658,39.9123072 34.5565036,39.7532683 L25.9122002,31.2310652 L22.2096208,37.5517545 C22.0574482,37.811257 21.7745211,37.9725095 21.4712122,37.9725095 C21.450485,37.9725095 21.4294122,37.9716581 21.408685,37.9701256 C21.0837852,37.9469679 20.7963672,37.7400811 20.6763218,37.4427771 L10.3133832,11.8255953 C10.1867742,11.5126258 10.2610469,11.1562356 10.5026922,10.9180179 C10.6640193,10.7593195 10.8787192,10.671797 11.106719,10.671797 C11.2153644,10.671797 11.3215916,10.6918897 11.4228097,10.7319049 L37.4059835,20.9490472 C37.7080833,21.0677304 37.9177741,21.3505608 37.941265,21.6703414 C37.9649286,21.9947195 37.8020469,22.2974723 37.5160107,22.4602573 L31.105415,26.1116814 L39.7495456,34.6337143 C39.9112182,34.7929235 40,35.0042375 40,35.2291736 C40,35.4539395 39.9112182,35.6652535 39.7497183,35.8241221 L35.7647301,39.7532683 C35.6032302,39.9123072 35.3888758,40 35.1608759,40 Z M7.58519227,8.32025442 C7.35719242,8.32025442 7.14266529,8.23256167 6.98133813,8.07352277 L3.93184014,5.06710867 C3.76999479,4.9078995 3.6810403,4.6965855 3.6810403,4.47164933 C3.6810403,4.24671316 3.77016752,4.03505861 3.93166741,3.87567916 C4.09299458,3.71698082 4.30769443,3.62945834 4.53586701,3.62945834 C4.76403959,3.62945834 4.97873945,3.71698082 5.14023934,3.87601972 L8.18904642,6.88226354 C8.35054631,7.04164299 8.4395008,7.25312726 8.4395008,7.47806343 C8.4395008,7.7029996 8.35071904,7.9143136 8.18921915,8.0733525 C8.02771925,8.23256167 7.81319212,8.32025442 7.58519227,8.32025442 Z M0.854135801,13.7106003 C0.383108838,13.7106003 0,13.3325849 0,12.8678985 C0,12.4038931 0.383108838,12.0265589 0.854135801,12.0265589 L5.16696023,12.0265589 C5.63798719,12.0265589 6.02109603,12.4038931 6.02109603,12.8678985 C6.02109603,13.3320741 5.63781447,13.7102597 5.16661478,13.7106003 L0.854135801,13.7106003 Z M3.90403106,21.8493903 C3.67603121,21.8493903 3.46150408,21.7616976 3.30000419,21.6024884 C3.1385043,21.4434495 3.04954981,21.2321355 3.04954981,21.0073696 C3.04954981,20.7824334 3.1385043,20.5711194 3.29983146,20.4122508 L6.34984763,17.4054962 C6.51134753,17.2461167 6.7255292,17.1585942 6.95370178,17.1585942 C7.18170163,17.1585942 7.39605603,17.246287 7.55721047,17.4053259 C7.71905582,17.5645351 7.80801031,17.7760193 7.80801031,18.0007852 C7.80801031,18.2255511 7.71905582,18.4370354 7.55772866,18.595904 L4.50788521,21.6026587 C4.34638532,21.7616976 4.13185819,21.8493903 3.90403106,21.8493903 Z M13.0523178,5.93637374 C12.5812908,5.93637374 12.198182,5.55869893 12.198182,5.09435302 L12.198182,0.842020713 C12.198182,0.377674811 12.5812908,7.10542736e-15 13.0523178,7.10542736e-15 C13.5235175,7.10542736e-15 13.9066263,0.377674811 13.9066263,0.842020713 L13.9066263,5.09367192 C13.9066263,5.55835837 13.5235175,5.93637374 13.0523178,5.93637374 Z M18.2578307,7.69709098 C18.0294854,7.69709098 17.815131,7.60956851 17.6538038,7.45087017 C17.3211313,7.12240546 17.3211313,6.58790536 17.6539765,6.25961093 L20.7036473,3.25319683 C20.8649744,3.09432821 21.0793288,3.00680574 21.3075014,3.00680574 C21.5358467,3.00680574 21.7502011,3.09432821 21.9113556,3.25319683 C22.0728555,3.41240601 22.1619827,3.62423083 22.1619827,3.849167 C22.1619827,4.0739329 22.0730282,4.28524689 21.9115283,4.44411551 L18.8623757,7.45104044 C18.7012213,7.60956851 18.4865215,7.69709098 18.2578307,7.69709098 Z" id="Combined-Shape"></path>
                        </g>
                    </g>
                </g>
            </g>
        </g>
    </g>
</svg>
